assets/customers/dark/autodesk/autodesk_small.svg

<svg xmlns="http://www.w3.org/2000/svg" width="20" height="20" viewBox="0 0 20 20" fill="none">
  <path d="M0.107443 17L12.3542 9.20295H18.7072C18.756 9.20295 18.8043 9.2128 18.8493 9.23193C18.8944 9.25106 18.9353 9.2791 18.9698 9.31444C19.0042 9.34978 19.0315 9.39173 19.0501 9.43788C19.0687 9.48403 19.0782 9.53348 19.0781 9.5834C19.0831 9.64817 19.0694 9.71302 19.0385 9.76982C19.0077 9.82661 18.9612 9.87283 18.9048 9.90267L12.8897 13.5937C12.4989 13.8331 12.362 14.3138 12.362 14.6738L12.3559 17H20V3.4811C20.0002 3.41626 19.9875 3.35207 19.9628 3.29238C19.938 3.2327 19.9017 3.17877 19.856 3.13384C19.8104 3.08892 19.7563 3.05394 19.697 3.03101C19.6378 3.00808 19.5746 2.99768 19.5113 3.00043H12.2173L0 10.7638V17H0.107443Z" fill="url(#paint0_linear_10972_6403)"/>
  <defs>
    <linearGradient id="paint0_linear_10972_6403" x1="11.3472" y1="3" x2="20.4424" y2="3.30006" gradientUnits="userSpaceOnUse">
      <stop stop-color="#FCFCFD"/>
      <stop offset="1" stop-color="#E0E1E6"/>
    </linearGradient>
  </defs>
</svg>

<svg xmlns="http://www.w3.org/2000/svg" width="20" height="20" fill="none" viewBox="0 0 20 20"><path fill="url(#a)" d="m.107 17 12.247-7.797h6.353a.36.36 0 0 1 .263.111.38.38 0 0 1 .108.27.34.34 0 0 1-.173.319l-6.015 3.69c-.391.24-.528.72-.528 1.08L12.356 17H20V3.481a.5.5 0 0 0-.144-.347.47.47 0 0 0-.345-.134h-7.294L0 10.764V17z"/><defs><linearGradient id="a" x1="11.347" x2="20.442" y1="3" y2="3.3" gradientUnits="userSpaceOnUse"><stop stop-color="#FCFCFD"/><stop offset="1" stop-color="#E0E1E6"/></linearGradient></defs></svg>
